COLOR/action 16/16/folder-new.svg

<svg height="16" width="16" xmlns="http://www.w3.org/2000/svg"><g stroke-width="1.066471" transform="translate(0 -.000502)"><path d="m3.7336601.06846094c-.8295013 0-1.4743965.0666544-2.0016599.2228712-.52737.15623793-.94809295.42044553-1.22484225.78944456-.55349855.7379981-.50614722 1.6538623-.50614722 2.7203335v7.5632008c0 .806124.0650547 1.433327.22075954 1.947558.15538486.514231.41890988.924012.78108363 1.19353.7244539.539038 1.6151706.493659 2.6329041.493659h8.72544c.806146 0 1.433338-.06548 1.94759-.220791.514359-.155332.926017-.418921 1.195621-.781105.539314-.724379.492283-1.616856.491643-2.634941v-6.4946396c0-.8005679-.05226-1.4270238-.189512-1.9454781-.137575-.5184543-.378597-.94227-.735332-1.2310277-.713362-.5775049-1.637033-.5561435-2.807805-.5561435h-4.0451247l-1.0664713-1.06647116z" fill="#7e2c50"/><path d="m7.999545 2.734639-1.0664712 1.0664712h-3.7326493c-2.31434925 0-3.18810918.1015281-3.19728083 3.155667.0106647 1.0961298.0159971 2.1934327.0106647 3.2889868.0511906 1.0833-.0874506 2.210987.25616639 3.257739.31674199.903109 1.23582694 1.517365 2.19746404 1.466398 3.6053126.05471 7.2115848.02752 10.8167902-.02709.860429.04202 1.80287-.284866 2.303791-1.008157.316102-.461259.467221-.993802.393635-1.55179-.01173-2.5213838.01066-5.044516-.0128-7.5652914-.09811-1.380417-.594342-2.0829443-3.168164-2.0829443z" fill="#6c6c6c"/><path d="m3.734375.06835937c-.8295013 0-1.4746897.06643946-2.0019531.22265625-.52737.15623794-.9478601.42006348-1.2246094.78906248-.50480469.673073-.50888242 1.5009304-.50585937 2.4492188.01262768-.742098.09073546-1.3957202.50585937-1.9492188.2767493-.368999.6972394-.63282454 1.2246094-.78906248.5272634-.1562168 1.1724518-.22265624 2.0019531-.22265624h3.4179688l1.0664062 1.06640622h4.044922c1.170772 0 2.093278-.020864 2.80664.5566406.356736.2887577.598754.7120145.736329 1.2304688.137252.5184543.189453 1.1447446.189453 1.9453125v-.5c0-.8005679-.0522-1.4268582-.189453-1.9453125-.137575-.5184543-.379593-.9417111-.736329-1.2304688-.713362-.5775049-1.635868-.5566406-2.80664-.5566406h-4.044922l-1.0664062-1.06640623z" fill="#fff" opacity=".3"/><path d="m8 2.734375-1.0664062 1.0664062h-3.7324219c-2.31434927 0-3.188094.1021112-3.19726565 3.15625.00151992.1562186.00066526.3124923.00195313.46875.01580067-3.0196496.88990612-3.125 3.19531252-3.125h3.7324219l1.0664062-1.0664062h4.800781c2.573822 0 3.069859.7035674 3.167969 2.0839844-.0012-.1666387.0016-.3333808 0-.5-.09811-1.380417-.594147-2.0839844-3.167969-2.0839844zm7.982422 9.648437c.000498.166023-.000771.332039 0 .498047.01742-.163453.02234-.328618 0-.498047z" fill="#fff" opacity=".3"/><path d="m.00585938 6.9257812c-.00006113.011691-.00191776.019471-.00195313.03125.0106647 1.0961298.01509803 2.1935084.00976563 3.2890628.05119059 1.0833-.08775762 2.21106.25585937 3.257812.31674199.903109 1.23562855 1.517764 2.19726565 1.466797 3.6053126.05471 7.2131539.02727 10.8183591-.02734.860429.04202 1.801814-.284521 2.302735-1.007812.316102-.461259.468117-.994747.394531-1.552735-.04001.374704-.174492.731652-.394531 1.052735-.500921.723291-1.442306 1.049832-2.302735 1.007812-3.6052052.05461-7.2130465.08205-10.8183591.02734-.9616371.050967-1.88052366-.563688-2.19726565-1.466797-.34361699-1.046752-.20466878-2.174512-.25585937-3.2578122.00457243-.9394178-.00006388-1.8801655-.0078125-2.8203126z" opacity=".2"/></g><g stroke-width="1.03486" transform="matrix(1.0001356 0 0 1.0001356 -11.818827 .734253)"><g><circle cx="10.763678" cy="-23.316275" fill="#45a925" r="4.5" transform="rotate(90)"/><g fill="#f4f4f4"><rect height="1" rx=".266667" ry=".333333" width="5" x="20.816277" y="10.263678"/><rect height="5" rx=".333333" ry=".266667" width="1" x="22.816275" y="8.263678"/></g></g><g><path d="m11.5 6.9980469a4.5006102 4.5006102 0 0 0 -4.5 4.5019531 4.5006102 4.5006102 0 0 0 .0117188.292969 4.5006102 4.5006102 0 0 1 4.4882812-4.2949221 4.5006102 4.5006102 0 0 1 4.490234 4.2089841 4.5006102 4.5006102 0 0 0 .011719-.207031 4.5006102 4.5006102 0 0 0 -4.501953-4.5019531z" fill="#fff" opacity=".3" stroke-width="1.035" transform="matrix(.99986442 0 0 .99986442 11.817224 -.734154)"/><g fill="#f4f4f4"><rect height="1" rx=".266667" ry=".333333" width="5" x="20.816277" y="10.263678"/><rect height="5" rx=".333333" ry=".266667" width="1" x="22.816275" y="8.263678"/></g><path d="m23.317618 15.263677a4.5 4.5 0 0 0 4.49939-4.501344 4.5 4.5 0 0 0 -.01172-.292929 4.5 4.5 0 0 1 -4.487672 4.29434 4.5 4.5 0 0 1 -4.489625-4.208414 4.5 4.5 0 0 0 -.01172.207003 4.5 4.5 0 0 0 4.501342 4.501344z" opacity=".2" stroke-width="1.03486"/></g></g></svg>

<?xml version="1.0" encoding="UTF-8" standalone="no"?>
<svg
   xmlns:dc="http://purl.org/dc/elements/1.1/"
   xmlns:cc="http://creativecommons.org/ns#"
   xmlns:rdf="http://www.w3.org/1999/02/22-rdf-syntax-ns#"
   xmlns:svg="http://www.w3.org/2000/svg"
   xmlns="http://www.w3.org/2000/svg"
   xmlns:xlink="http://www.w3.org/1999/xlink"
   xmlns:sodipodi="http://sodipodi.sourceforge.net/DTD/sodipodi-0.dtd"
   xmlns:inkscape="http://www.inkscape.org/namespaces/inkscape"
   height="16"
   width="16"
   version="1.1"
   id="svg60"
   sodipodi:docname="folder-new.svg"
   inkscape:version="0.92.4 (5da689c313, 2019-01-14)">
  <metadata
     id="metadata66">
    <rdf:RDF>
      <cc:Work
         rdf:about="">
        <dc:format>image/svg+xml</dc:format>
        <dc:type
           rdf:resource="http://purl.org/dc/dcmitype/StillImage" />
      </cc:Work>
    </rdf:RDF>
  </metadata>
  <defs
     id="defs64">
    <linearGradient
       inkscape:collect="always"
       xlink:href="#a-3"
       id="linearGradient924"
       gradientUnits="userSpaceOnUse"
       x1=".0024"
       y1="5.99785"
       x2="16.0024"
       y2="14.99785" />
  </defs>
  <sodipodi:namedview
     pagecolor="#ffffff"
     bordercolor="#666666"
     borderopacity="1"
     objecttolerance="10"
     gridtolerance="10"
     guidetolerance="10"
     inkscape:pageopacity="0"
     inkscape:pageshadow="2"
     inkscape:window-width="1920"
     inkscape:window-height="1016"
     id="namedview62"
     showgrid="false"
     inkscape:zoom="14.75"
     inkscape:cx="-4.9830508"
     inkscape:cy="8"
     inkscape:window-x="0"
     inkscape:window-y="27"
     inkscape:window-maximized="1"
     inkscape:current-layer="g847" />
  <linearGradient
     id="a"
     gradientUnits="userSpaceOnUse"
     x1=".0024"
     x2="16.0024"
     y1="2.99785"
     y2="14.99785">
    <stop
       offset="0"
       stop-color="#666"
       id="stop2" />
    <stop
       offset="1"
       stop-color="#7a7a7a"
       id="stop4" />
  </linearGradient>
  <linearGradient
     id="b"
     gradientUnits="userSpaceOnUse"
     x1=".0952"
     x2="16.0024"
     y1="16.06079"
     y2="-.00215">
    <stop
       offset="0"
       stop-color="#2c001e"
       id="stop7" />
    <stop
       offset=".10864977"
       stop-color="#2c001e"
       id="stop9" />
    <stop
       offset=".18689813"
       stop-color="#370626"
       id="stop11" />
    <stop
       offset=".2980746"
       stop-color="#55163b"
       id="stop13" />
    <stop
       offset=".37246177"
       stop-color="#772953"
       id="stop15" />
    <stop
       offset=".44700962"
       stop-color="#7c2b51"
       id="stop17" />
    <stop
       offset=".52428877"
       stop-color="#8b314b"
       id="stop19" />
    <stop
       offset=".59614229"
       stop-color="#8b314b"
       id="stop21" />
    <stop
       offset=".66876179"
       stop-color="#a33a41"
       id="stop23" />
    <stop
       offset=".79755175"
       stop-color="#c44732"
       id="stop25" />
    <stop
       offset=".91251218"
       stop-color="#e65524"
       id="stop27" />
    <stop
       offset="1"
       stop-color="#e65524"
       id="stop29" />
  </linearGradient>
  <g
     id="g905"
     transform="translate(0,-5.024494e-4)">
    <path
       inkscape:connector-curvature="0"
       style="fill:#7e2c50;fill-opacity:1;stroke-width:1.06647122"
       id="path34-0"
       d="m 3.7336601,0.06846094 c -0.8295013,0 -1.4743965,0.0666544 -2.0016599,0.2228712 C 1.2046302,0.44757007 0.78390725,0.71177767 0.50715795,1.0807767 -0.0463406,1.8187748 0.00101073,2.734639 0.00101073,3.8011102 v 7.5632008 c 0,0.806124 0.0650547,1.433327 0.22075954,1.947558 0.15538486,0.514231 0.41890988,0.924012 0.78108363,1.19353 0.7244539,0.539038 1.6151706,0.493659 2.6329041,0.493659 h 8.72544 c 0.806146,0 1.433338,-0.06548 1.94759,-0.220791 0.514359,-0.155332 0.926017,-0.418921 1.195621,-0.781105 0.539314,-0.724379 0.492283,-1.616856 0.491643,-2.634941 V 4.8675814 c 0,-0.8005679 -0.05226,-1.4270238 -0.189512,-1.9454781 C 15.668965,2.403649 15.427943,1.9798333 15.071208,1.6910756 14.357846,1.1135707 13.434175,1.1349321 12.263403,1.1349321 H 8.2182783 L 7.151807,0.06846094 Z" />
    <path
       inkscape:connector-curvature="0"
       style="fill:#6c6c6c;fill-opacity:1;stroke-width:1.06647122"
       id="path36-6"
       d="M 7.999545,2.734639 6.9330738,3.8011102 H 3.2004245 c -2.31434925,0 -3.18810918,0.1015281 -3.19728083,3.155667 0.0106647,1.0961298 0.0159971,2.1934327 0.0106647,3.2889868 0.0511906,1.0833 -0.0874506,2.210987 0.25616639,3.257739 0.31674199,0.903109 1.23582694,1.517365 2.19746404,1.466398 3.6053126,0.05471 7.2115848,0.02752 10.8167902,-0.02709 0.860429,0.04202 1.80287,-0.284866 2.303791,-1.008157 0.316102,-0.461259 0.467221,-0.993802 0.393635,-1.55179 -0.01173,-2.5213838 0.01066,-5.044516 -0.0128,-7.5652914 -0.09811,-1.380417 -0.594342,-2.0829443 -3.168164,-2.0829443 z" />
    <path
       id="path936"
       d="m 3.734375,0.06835937 c -0.8295013,0 -1.4746897,0.06643946 -2.0019531,0.22265625 C 1.2050519,0.44725356 0.7845618,0.7110791 0.5078125,1.0800781 0.00300781,1.7531511 -0.00106992,2.5810085 0.00195313,3.5292969 0.01458081,2.7871989 0.09268859,2.1335767 0.5078125,1.5800781 0.7845618,1.2110791 1.2050519,0.94725356 1.7324219,0.79101562 2.2596853,0.63479882 2.9048737,0.56835938 3.734375,0.56835938 H 7.1523438 L 8.21875,1.6347656 h 4.044922 c 1.170772,0 2.093278,-0.020864 2.80664,0.5566406 0.356736,0.2887577 0.598754,0.7120145 0.736329,1.2304688 0.137252,0.5184543 0.189453,1.1447446 0.189453,1.9453125 v -0.5 c 0,-0.8005679 -0.0522,-1.4268582 -0.189453,-1.9453125 C 15.669066,2.4034207 15.427048,1.9801639 15.070312,1.6914062 14.35695,1.1139013 13.434444,1.1347656 12.263672,1.1347656 H 8.21875 L 7.1523438,0.06835937 Z"
       style="opacity:0.3;fill:#ffffff;fill-opacity:1;stroke-width:1.06647122"
       inkscape:connector-curvature="0" />
    <path
       id="path941"
       d="M 8,2.734375 6.9335938,3.8007812 H 3.2011719 c -2.31434927,0 -3.188094,0.1021112 -3.19726565,3.15625 0.00151992,0.1562186 6.6526e-4,0.3124923 0.00195313,0.46875 0.01580067,-3.0196496 0.88990612,-3.125 3.19531252,-3.125 H 6.9335938 L 8,3.234375 h 4.800781 c 2.573822,0 3.069859,0.7035674 3.167969,2.0839844 -0.0012,-0.1666387 0.0016,-0.3333808 0,-0.5 C 15.87064,3.4379424 15.374603,2.734375 12.800781,2.734375 Z m 7.982422,9.648437 c 4.98e-4,0.166023 -7.71e-4,0.332039 0,0.498047 0.01742,-0.163453 0.02234,-0.328618 0,-0.498047 z"
       style="opacity:0.3;fill:#ffffff;fill-opacity:1;stroke-width:1.06647122"
       inkscape:connector-curvature="0" />
    <path
       id="path951"
       d="m 0.00585938,6.9257812 c -6.113e-5,0.011691 -0.00191776,0.019471 -0.00195313,0.03125 0.0106647,1.0961298 0.01509803,2.1935084 0.00976563,3.2890628 0.05119059,1.0833 -0.08775762,2.21106 0.25585937,3.257812 0.31674199,0.903109 1.23562855,1.517764 2.19726565,1.466797 3.6053126,0.05471 7.2131539,0.02727 10.8183591,-0.02734 0.860429,0.04202 1.801814,-0.284521 2.302735,-1.007812 0.316102,-0.461259 0.468117,-0.994747 0.394531,-1.552735 -0.04001,0.374704 -0.174492,0.731652 -0.394531,1.052735 -0.500921,0.723291 -1.442306,1.049832 -2.302735,1.007812 -3.6052052,0.05461 -7.2130465,0.08205 -10.8183591,0.02734 C 1.5051598,14.52167 0.58627324,13.907015 0.26953125,13.003906 -0.07408574,11.957154 0.06486247,10.829394 0.01367188,9.7460938 0.01824431,8.806676 0.013608,7.8659283 0.00585938,6.9257812 Z"
       style="opacity:0.2;fill:#000000;fill-opacity:1;stroke-width:1.06647122"
       inkscape:connector-curvature="0" />
  </g>
  <g
     stroke-width="1.03486"
     transform="matrix(1.00013559506 0 0 1.00013559506 -11.81882682274 .73425325384)"
     id="g56">
    <circle
       cx="10.763678"
       cy="-23.316275"
       fill="#45a925"
       r="4.5"
       transform="rotate(90)"
       id="circle48" />
    <g
       fill="#f4f4f4"
       id="g54">
      <rect
         height="1"
         rx=".266667"
         ry=".333333"
         width="5"
         x="20.816277"
         y="10.263678"
         id="rect50" />
      <rect
         height="5"
         rx=".333333"
         ry=".266667"
         width="1"
         x="22.816275"
         y="8.263678"
         id="rect52" />
    </g>
  </g>
  <g
     id="g847"
     transform="matrix(1.00013559506 0 0 1.00013559506 -11.81882682274 .73425325384)"
     stroke-width="1.03486">
    <path
       style="fill:#ffffff;stroke-width:1.03500032;fill-opacity:1;opacity:0.3"
       d="M 11.5 6.9980469 A 4.5006102 4.5006102 0 0 0 7 11.5 A 4.5006102 4.5006102 0 0 0 7.0117188 11.792969 A 4.5006102 4.5006102 0 0 1 11.5 7.4980469 A 4.5006102 4.5006102 0 0 1 15.990234 11.707031 A 4.5006102 4.5006102 0 0 0 16.001953 11.5 A 4.5006102 4.5006102 0 0 0 11.5 6.9980469 z "
       transform="matrix(0.99986442,0,0,0.99986442,11.817224,-0.73415371)"
       id="circle839" />
    <g
       id="g845"
       fill="#f4f4f4">
      <rect
         id="rect841"
         y="10.263678"
         x="20.816277"
         width="5"
         ry=".333333"
         rx=".266667"
         height="1" />
      <rect
         id="rect843"
         y="8.263678"
         x="22.816275"
         width="1"
         ry=".266667"
         rx=".333333"
         height="5" />
    </g>
    <path
       id="path852"
       d="m 23.317618,15.263677 a 4.5,4.5 0 0 0 4.49939,-4.501344 4.5,4.5 0 0 0 -0.01172,-0.292929 4.5,4.5 0 0 1 -4.487672,4.29434 4.5,4.5 0 0 1 -4.489625,-4.208414 4.5,4.5 0 0 0 -0.01172,0.207003 4.5,4.5 0 0 0 4.501342,4.501344 z"
       style="opacity:0.2;fill:#000000;fill-opacity:1;stroke-width:1.03486001"
       inkscape:connector-curvature="0" />
  </g>
</svg>
